gy/si-glyph-adjustment-horizon.svg

<svg viewBox="0 0 17 16" version="1.1" xmlns="http://www.w3.org/2000/svg" class="si-glyph si-glyph-adjustment-horizon" height="1em" width="1em">
  <g stroke="none" stroke-width="1" fill="none" fill-rule="evenodd">
    <g fill="#434343">
      <path d="M8,1 L8,2.95568848 L15.9281006,2.95568847 L15.9281006,0.99999999 L8,1 Z" class="si-glyph-fill"/>
      <rect x="0" y="1" width="1.97460938" height="1.9753418" class="si-glyph-fill"/>
      <path d="M0,7 L2.21252442e-07,8.9876709 L5.0111084,8.9876709 L5.01110818,7 L0,7 Z" class="si-glyph-fill"/>
      <path d="M11,7 L11,8.97875977 L15.9871826,8.97875976 L15.9871826,6.99999999 L11,7 Z" class="si-glyph-fill"/>
      <rect x="0" y="13" width="8.01904297" height="1.96240234" class="si-glyph-fill"/>
      <rect x="14" y="13" width="1.99963379" height="1.96069336" class="si-glyph-fill"/>
      <path d="M10.9680001,16.0396729 C12.0548964,16.0396729 12.9755859,15.2177875 12.9755859,14.1590576 C12.9755859,13.1003278 12.0548964,12 10.968,12 C9.88110361,12 9.04431152,12.9611066 9.04431152,14.0198364 C9.04431152,15.0785663 9.88110367,16.0396729 10.9680001,16.0396729 Z" class="si-glyph-fill"/>
      <path d="M7.90600002,9.99328613 C8.95865475,9.99328613 10.0087891,8.97572992 10.0087891,7.91700006 C10.0087891,6.85827019 8.95865473,6 7.906,6 C6.85334527,6 6,6.85827013 6,7.917 C6,8.97572987 6.85334529,9.99328613 7.90600002,9.99328613 Z" class="si-glyph-fill"/>
      <path d="M5.0559082,3.98095703 C6.11463807,3.98095703 7.02233887,2.97572992 7.02233887,1.91700006 C7.02233887,0.85827019 5.97572987,0 4.917,0 C3.85827013,0 3,0.858270135 3,1.917 C3,2.97572987 3.99717834,3.98095703 5.0559082,3.98095703 Z" class="si-glyph-fill"/>
    </g>
  </g>
</svg>

<svg viewBox="0 0 17 16" xmlns="http://www.w3.org/2000/svg" class="si-glyph si-glyph-adjustment-horizon" height="1em" width="1em">
  <path d="M8 1v1.956h7.928V1H8ZM0 1h1.975v1.975H0zm0 6v1.988h5.011V7H0Zm11 0v1.979h4.987V7H11ZM0 13h8.019v1.962H0zm14 0h2v1.961h-2zm-3.032 3.04c1.087 0 2.008-.822 2.008-1.88 0-1.06-.921-2.16-2.008-2.16s-1.924.961-1.924 2.02c0 1.059.837 2.02 1.924 2.02ZM7.906 9.993c1.053 0 2.103-1.017 2.103-2.076C10.009 6.858 8.959 6 7.906 6A1.912 1.912 0 0 0 6 7.917c0 1.059.853 2.076 1.906 2.076Zm-2.85-6.012c1.059 0 1.966-1.005 1.966-2.064C7.022.858 5.976 0 4.917 0A1.917 1.917 0 0 0 3 1.917c0 1.059.997 2.064 2.056 2.064Z" class="si-glyph-fill" fill="#434343" fill-rule="evenodd"/>
</svg>
